www/assets/icons/local_shipping.svg

<svg xmlns="http://www.w3.org/2000/svg" width="24" height="24" viewBox="0 0 24 24" fill='currentColor'><path d="M20 8h-3V4H3c-1.1 0-2 .9-2 2v11h2c0 1.66 1.34 3 3 3s3-1.34 3-3h6c0 1.66 1.34 3 3 3s3-1.34 3-3h2v-5zM6 18.5c-.83 0-1.5-.67-1.5-1.5s.67-1.5 1.5-1.5 1.5.67 1.5 1.5-.67 1.5-1.5 1.5m13.5-9 1.96 2.5H17V9.5zm-1.5 9c-.83 0-1.5-.67-1.5-1.5s.67-1.5 1.5-1.5 1.5.67 1.5 1.5-.67 1.5-1.5 1.5"/></svg>

<svg width="24" height="24" viewBox="0 0 24 24" xmlns="http://www.w3.org/2000/svg" fill='currentColor'><path d="M20 8H17V4H3C1.9 4 1 4.9 1 6V17H3C3 18.66 4.34 20 6 20C7.66 20 9 18.66 9 17H15C15 18.66 16.34 20 18 20C19.66 20 21 18.66 21 17H23V12L20 8ZM6 18.5C5.17 18.5 4.5 17.83 4.5 17C4.5 16.17 5.17 15.5 6 15.5C6.83 15.5 7.5 16.17 7.5 17C7.5 17.83 6.83 18.5 6 18.5ZM19.5 9.5L21.46 12H17V9.5H19.5ZM18 18.5C17.17 18.5 16.5 17.83 16.5 17C16.5 16.17 17.17 15.5 18 15.5C18.83 15.5 19.5 16.17 19.5 17C19.5 17.83 18.83 18.5 18 18.5Z"/></svg>
